src/topics/icons/rocksdb.svg

<svg height="210" preserveAspectRatio="xMidYMid" viewBox="0 0 256 210" width="256" xmlns="http://www.w3.org/2000/svg"><path d="m238.895 210h-221.79c-9.447 0-17.105-7.658-17.105-17.106v-175.788c0-9.448 7.658-17.106 17.105-17.106h221.79c9.447 0 17.105 7.658 17.105 17.106v175.788c0 9.448-7.658 17.106-17.105 17.106"/><g transform="translate(20 20)"><path d="m53.705 89.046c-5.328 2.681-8.633 4.581-12.118 6.053-10.365 4.377-21.407.516-26.207-8.997-4.748-9.409-2.037-20.293 7.492-25.869 12.836-7.51 26.137-14.225 40.291-21.848-.966 8.557-5.06 13.398-11.153 16.779-6.98 3.873-14.045 7.594-21.095 11.338-6.256 3.321-10.852 7.789-6.904 15.228 3.773 7.11 9.774 6.965 16.368 3.397 26.97-14.595 53.995-29.089 81.042-43.542 3.231-1.727 5.348-4.397 7.617-7.103 7.984-9.522 17.969-16.602 27.947-23.692-.428-.659-.732-2.757-.732-2.757s4.082-.353 6.5-2.167c.877-.658 5.103-3.447 6.142-3.797 8.525-2.87 6.53-.733 12.525.797.887.226 7.787-.532 8.483.018 2.559 2.732 1.43 9.819 1.43 9.819-1.621 2.163-5.251 2.42-5.913 3.163-4.076 4.576-4.553 6.904-12.667 8.667-.922.037-.391 2.457-.34 4.026.186 5.726-.576 11.445.704 17.186 2.378 10.671 8.066 16.348 19.691 15.638 5.656-.345 11.464.678 17.102 1.662 2.865.499 5.563 2.672 4.827 6.072-.247 1.143-.65 1.916-.65 1.916s-4.034.045-5.015-.315c-2.066-.758-3.5-1.174-5.652-1.352-.432-.482-.333-2.5-.333-2.5s-4.039 2.387-5.324 2.438c-9.079.361-18.315 2.861-25.761-1.986-12.049-7.845-17.326-2.385-25.676 5.1-13.548 12.143-30.163 19.249-48.757 19.779-5.22.149-6.233 2.196-6.737 6.657-1.991 17.623-11.481 28.716-29.279 31.763-3.753.643-5.374 2.834-6.957 5.728-4.439 8.119-8.991 16.176-13.517 24.247-1.4 2.496-2.516 5.34-5.4 6.478-1.353.533-3.017.572-4.46.34-.309-.049-.591-1.697-.305-3.378.839-3.499 1.173-6.166 1.673-9.333 2.311-.008 3.326-2.259 4.487-3.308 4.934-4.455 4.856-14.637 6.577-22.404 1.057-4.766 1.566-8.739 7.818-10.263 5.831-1.421 7.067-7.02 5.035-12.538-1.877-5.093-3.93-10.072-2.799-17.14" fill="#f7be01"/><path d="m215.32 84.817c0 24.54.354 48.442-.183 72.325-.201 8.915-6.709 12.228-15.247 12.204-30.661-.089-61.322-.036-91.983-.036h-48.374c5.412-5.73 16.887-16.444 16.887-16.444s7.375-2.533 12.383-2.977c6.477-.575 17.284-3.356 17.284-3.356s4.039-10.067 5.281-15.742c.777-3.551 3.469-10.175 3.469-10.175l11.563-.043 28.187-.207s4.988-14.14 6.833-21.167c15-2 40.144-11.028 53.9-14.382" fill="#f7be01"/><path d="m38.958 123.211c-2.328 6.799 1.218 16.093-7.803 19.077-9.309 3.081-17.15 12.126-30.589 7.729 4.641-2.498 6.762-6.768 10.524-8.652 1.108-.554 3.33-1.999 3.33-1.999l2.939 2.094s2.055-.94 3.029-1.553c2.924-1.836 6.358-6.365 9.427-8.962 3.047-2.579 6.095-5.156 9.143-7.734" fill="#f7be01"/><path d="m202.01 50.402c-.314-1.468-.923-2.369-.923-2.369s-8.884 5.521-12.103 6.537c-2.814.887-5.152 4.008-7.275-1.367-1.765-4.472.74-4.668 3.509-5.644 6.257-2.206 12.423-4.674 18.706-6.801 3.821-1.293 8.856-1.409 10.094 2.442.449 1.395-.088 2.958-.088 2.958s-4.097 1.413-6.218 2.208c-1.735.651-4.11 1.413-5.702 2.036" fill="#f7be01"/><path d="m56.127 35.968c-2.733.673-2.681-1.384-2.865-2.756-.545-4.05 3.294-4.088 5.49-5.385 1.848-1.092 3.057.818 3.271 2.268.997 4.216-4.112 4.6-5.896 5.873" fill="#f7be01"/><path d="m51.218 25.283c-2.15.124-3.219-1.043-3.28-2.762-.108-2.999 1.708-4.928 4.539-5.066 2.207-.109 4.889 1.031 4.444 3.707-.456 2.746-3.775 2.902-5.703 4.121" fill="#f7be01"/><g fill="#303144"><path d="m120.13 70.088c-1.915-.659-2.082-2.216-1.78-3.841.246-1.324 1.036-2.443 2.591-2.046 1.988.507 2.013 2.212 1.835 3.826-.166 1.5-1.16 2.132-2.646 2.061"/><path d="m163.12 38.601c-.081 1.367-.516 2.658-2.008 2.828-2.083.237-2.709-1.29-2.71-2.997-.001-1.299.482-2.704 1.969-2.849 2.014-.194 2.687 1.229 2.749 3.018"/><path d="m148.134 26.956c1.681-.264 2.705.4 3.07 1.758.47 1.747-.109 3.211-1.966 3.688-1.451.372-2.383-.602-2.849-1.865-.693-1.876.272-2.972 1.745-3.581"/><path d="m66.977 99.081c-.348 1.591-1.055 2.966-2.964 2.544-1.688-.374-2.597-1.784-2.028-3.387.332-.935 1.563-2.111 2.454-2.168 1.72-.111 2.57 1.243 2.538 3.011"/><path d="m83.921 89.238c.216 2.048-.875 3.238-2.49 3.247-.852.005-2.15-1.183-2.47-2.102-.556-1.593.314-3.113 1.977-3.531 1.902-.477 2.534 1.077 2.983 2.386"/><path d="m163.632 48.019c2.004-.011 2.984 1.072 2.994 2.766.011 1.667-.991 3.083-2.725 2.859-.881-.113-1.981-1.373-2.303-2.34-.567-1.705.543-2.792 2.034-3.285"/><path d="m114.771 57.632c-.25.969-1.135 2.306-2.924 1.622-.917-.35-1.953-1.65-2.049-2.609-.162-1.635 1.016-2.948 2.756-2.846 1.749.102 2.592 1.356 2.217 3.833"/><path d="m150.674 45.359c-.346 2.211-1.087 3.473-3.064 3.199-1.534-.212-2.007-1.488-1.881-2.756.157-1.585.819-3.291 2.824-2.724.941.265 1.565 1.647 2.121 2.281"/><path d="m137.937 41.318c-.166 1.918-.601 3.121-2.063 3.322-1.949.267-2.986-1.022-2.869-2.708.101-1.465.796-3.311 2.822-2.768.945.253 1.597 1.599 2.11 2.154"/><path d="m80.816 103.722c-.176 1.384-.368 3.071-2.511 2.956-1.5-.081-2.005-1.362-2.02-2.657-.019-1.626.324-3.285 2.444-3.174 1.468.078 1.89 1.372 2.087 2.875"/><path d="m133.784 72.964c-1.775-.431-2.657-1.591-2.487-3.386.136-1.437 1.179-2.403 2.508-2.361 1.945.061 2.578 1.479 2.381 3.294-.156 1.439-.989 2.232-2.402 2.453"/><path d="m161.232 20.791c1.54-.149 2.624.469 2.974 1.806.455 1.744-.25 3.238-1.984 3.761-1.417.427-2.326-.65-2.742-1.912-.586-1.781.027-3.065 1.752-3.655"/><path d="m129.499 51.55c1.544.416 2.855 1.321 2.34 3.127-.286 1.003-1.274 2.323-2.168 2.528-1.788.409-2.7-1.096-2.89-2.677-.219-1.814.95-2.717 2.718-2.978"/><path d="m95.992 79.663c.489-.283 1.11-.277 1.593.017 1.134.692 1.909 1.71 1.508 3.139-.17.608-.708 1.113-1.285 1.607-.607.52-1.503.519-2.11-.001-.579-.497-1.118-1.005-1.28-1.613-.379-1.425.388-2.463 1.574-3.149"/><path d="m85.621 74.127c-.474.367-1.474 1.751-2.307 1.657-1.577-.178-2.975-1.477-2.349-3.331.352-1.039 1.637-2.608 2.32-2.52 1.579.203 2.679 1.518 2.336 4.194"/><path d="m144.998 56.721c1.568.791 2.419 2.032 1.874 3.779-.377 1.208-1.324 2.268-2.711 1.853-1.718-.513-2.455-1.907-1.872-3.677.399-1.212 1.218-2.104 2.709-1.955"/><path d="m176.312 9.653c-1.484.111-2.453-.695-2.769-1.989-.474-1.943.863-2.979 2.48-3.125 1.368-.123 2.282 1.079 2.315 2.441.032 1.284-.461 2.468-2.026 2.673"/><path d="m69.521 83.491c-.504 1.206-.661 2.61-2.255 2.591-2.077-.024-2.396-1.612-2.41-3.173-.012-1.336.728-2.315 2.192-2.369 2.153-.08 2.277 1.514 2.473 2.951"/><path d="m110.877 80.37c.179-1.537.278-3.179 2.402-3.194 1.591-.01 1.996 1.315 2.104 2.484.145 1.581-.172 3.155-2.306 3.121-1.499-.023-2.002-1.108-2.2-2.411"/><path d="m68.582 111.932c1.572-.073 2.194.881 2.438 2.174.307 1.625.064 3.122-1.846 3.463-1.4.25-2.294-.582-2.438-2.024-.16-1.595.143-2.988 1.846-3.613"/><path d="m100.329 70.277c-2.175-.796-2.92-2.192-2.379-3.709.3-.844 1.785-1.921 2.568-1.8 1.64.253 2.518 1.816 1.977 3.411-.31.914-1.533 1.518-2.166 2.098"/></g></g></svg>

<?xml version="1.0" encoding="UTF-8" standalone="no"?>
<svg width="256px" height="210px" viewBox="0 0 256 210" version="1.1" xmlns="http://www.w3.org/2000/svg" xmlns:xlink="http://www.w3.org/1999/xlink" preserveAspectRatio="xMidYMid">
	<g>
		<path d="M238.895,210 L17.105,210 C7.658,210 0,202.342 0,192.894 L0,17.106 C0,7.658 7.658,0 17.105,0 L238.895,0 C248.342,0 256,7.658 256,17.106 L256,192.894 C256,202.342 248.342,210 238.895,210" fill="#000000"></path>
		<g transform="translate(20.000000, 20.000000)">
			<path d="M53.705,89.046 C48.377,91.727 45.072,93.627 41.587,95.099 C31.222,99.476 20.18,95.615 15.38,86.102 C10.632,76.693 13.343,65.809 22.872,60.233 C35.708,52.723 49.009,46.008 63.163,38.385 C62.197,46.942 58.103,51.783 52.01,55.164 C45.03,59.037 37.965,62.758 30.915,66.502 C24.659,69.823 20.063,74.291 24.011,81.73 C27.784,88.84 33.785,88.695 40.379,85.127 C67.349,70.532 94.374,56.038 121.421,41.585 C124.652,39.858 126.769,37.188 129.038,34.482 C137.022,24.96 147.007,17.88 156.985,10.79 C156.557,10.131 156.253,8.033 156.253,8.033 C156.253,8.033 160.335,7.68 162.753,5.866 C163.63,5.208 167.856,2.419 168.895,2.069 C177.42,-0.801 175.425,1.336 181.42,2.866 C182.307,3.092 189.207,2.334 189.903,2.884 C192.462,5.616 191.333,12.703 191.333,12.703 C189.712,14.866 186.082,15.123 185.42,15.866 C181.344,20.442 180.867,22.77 172.753,24.533 C171.831,24.57 172.362,26.99 172.413,28.559 C172.599,34.285 171.837,40.004 173.117,45.745 C175.495,56.416 181.183,62.093 192.808,61.383 C198.464,61.038 204.272,62.061 209.91,63.045 C212.775,63.544 215.473,65.717 214.737,69.117 C214.49,70.26 214.087,71.033 214.087,71.033 C214.087,71.033 210.053,71.078 209.072,70.718 C207.006,69.96 205.572,69.544 203.42,69.366 C202.988,68.884 203.087,66.866 203.087,66.866 C203.087,66.866 199.048,69.253 197.763,69.304 C188.684,69.665 179.448,72.165 172.002,67.318 C159.953,59.473 154.676,64.933 146.326,72.418 C132.778,84.561 116.163,91.667 97.569,92.197 C92.349,92.346 91.336,94.393 90.832,98.854 C88.841,116.477 79.351,127.57 61.553,130.617 C57.8,131.26 56.179,133.451 54.596,136.345 C50.157,144.464 45.605,152.521 41.079,160.592 C39.679,163.088 38.563,165.932 35.679,167.07 C34.326,167.603 32.662,167.642 31.219,167.41 C30.91,167.361 30.628,165.713 30.914,164.032 C31.753,160.533 32.087,157.866 32.587,154.699 C34.898,154.691 35.913,152.44 37.074,151.391 C42.008,146.936 41.93,136.754 43.651,128.987 C44.708,124.221 45.217,120.248 51.469,118.724 C57.3,117.303 58.536,111.704 56.504,106.186 C54.627,101.093 52.574,96.114 53.705,89.046" fill="#F7BE01"></path>
			<path d="M215.32,84.817 C215.32,109.357 215.674,133.259 215.137,157.142 C214.936,166.057 208.428,169.37 199.89,169.346 C169.229,169.257 138.568,169.31 107.907,169.31 L59.533,169.31 C64.945,163.58 76.42,152.866 76.42,152.866 C76.42,152.866 83.795,150.333 88.803,149.889 C95.28,149.314 106.087,146.533 106.087,146.533 C106.087,146.533 110.126,136.466 111.368,130.791 C112.145,127.24 114.837,120.616 114.837,120.616 L126.4,120.573 L154.587,120.366 C154.587,120.366 159.575,106.226 161.42,99.199 C176.42,97.199 201.564,88.171 215.32,84.817" fill="#F7BE01"></path>
			<path d="M38.958,123.211 C36.63,130.01 40.176,139.304 31.155,142.288 C21.846,145.369 14.005,154.414 0.566,150.017 C5.207,147.519 7.328,143.249 11.09,141.365 C12.198,140.811 14.42,139.366 14.42,139.366 L17.359,141.46 C17.359,141.46 19.414,140.52 20.388,139.907 C23.312,138.071 26.746,133.542 29.815,130.945 C32.862,128.366 35.91,125.789 38.958,123.211" fill="#F7BE01"></path>
			<path d="M202.01,50.402 C201.696,48.934 201.087,48.033 201.087,48.033 C201.087,48.033 192.203,53.554 188.984,54.57 C186.17,55.457 183.832,58.578 181.709,53.203 C179.944,48.731 182.449,48.535 185.218,47.559 C191.475,45.353 197.641,42.885 203.924,40.758 C207.745,39.465 212.78,39.349 214.018,43.2 C214.467,44.595 213.93,46.158 213.93,46.158 C213.93,46.158 209.833,47.571 207.712,48.366 C205.977,49.017 203.602,49.779 202.01,50.402" fill="#F7BE01"></path>
			<path d="M56.127,35.968 C53.394,36.641 53.446,34.584 53.262,33.212 C52.717,29.162 56.556,29.124 58.752,27.827 C60.6,26.735 61.809,28.645 62.023,30.095 C63.02,34.311 57.911,34.695 56.127,35.968" fill="#F7BE01"></path>
			<path d="M51.218,25.283 C49.068,25.407 47.999,24.24 47.938,22.521 C47.83,19.522 49.646,17.593 52.477,17.455 C54.684,17.346 57.366,18.486 56.921,21.162 C56.465,23.908 53.146,24.064 51.218,25.283" fill="#F7BE01"></path>
			<path d="M120.13,70.088 C118.215,69.429 118.048,67.872 118.35,66.247 C118.596,64.923 119.386,63.804 120.941,64.201 C122.929,64.708 122.954,66.413 122.776,68.027 C122.61,69.527 121.616,70.159 120.13,70.088" fill="#303144"></path>
			<path d="M163.12,38.601 C163.039,39.968 162.604,41.259 161.112,41.429 C159.029,41.666 158.403,40.139 158.402,38.432 C158.401,37.133 158.884,35.728 160.371,35.583 C162.385,35.389 163.058,36.812 163.12,38.601" fill="#303144"></path>
			<path d="M148.134,26.956 C149.815,26.692 150.839,27.356 151.204,28.714 C151.674,30.461 151.095,31.925 149.238,32.402 C147.787,32.774 146.855,31.8 146.389,30.537 C145.696,28.661 146.661,27.565 148.134,26.956" fill="#303144"></path>
			<path d="M66.977,99.081 C66.629,100.672 65.922,102.047 64.013,101.625 C62.325,101.251 61.416,99.841 61.985,98.238 C62.317,97.303 63.548,96.127 64.439,96.07 C66.159,95.959 67.009,97.313 66.977,99.081" fill="#303144"></path>
			<path d="M83.921,89.238 C84.137,91.286 83.046,92.476 81.431,92.485 C80.579,92.49 79.281,91.302 78.961,90.383 C78.405,88.79 79.275,87.27 80.938,86.852 C82.84,86.375 83.472,87.929 83.921,89.238" fill="#303144"></path>
			<path d="M163.632,48.019 C165.636,48.008 166.616,49.091 166.626,50.785 C166.637,52.452 165.635,53.868 163.901,53.644 C163.02,53.531 161.92,52.271 161.598,51.304 C161.031,49.599 162.141,48.512 163.632,48.019" fill="#303144"></path>
			<path d="M114.771,57.632 C114.521,58.601 113.636,59.938 111.847,59.254 C110.93,58.904 109.894,57.604 109.798,56.645 C109.636,55.01 110.814,53.697 112.554,53.799 C114.303,53.901 115.146,55.155 114.771,57.632" fill="#303144"></path>
			<path d="M150.674,45.359 C150.328,47.57 149.587,48.832 147.61,48.558 C146.076,48.346 145.603,47.07 145.729,45.802 C145.886,44.217 146.548,42.511 148.553,43.078 C149.494,43.343 150.118,44.725 150.674,45.359" fill="#303144"></path>
			<path d="M137.937,41.318 C137.771,43.236 137.336,44.439 135.874,44.64 C133.925,44.907 132.888,43.618 133.005,41.932 C133.106,40.467 133.801,38.621 135.827,39.164 C136.772,39.417 137.424,40.763 137.937,41.318" fill="#303144"></path>
			<path d="M80.816,103.722 C80.64,105.106 80.448,106.793 78.305,106.678 C76.805,106.597 76.3,105.316 76.285,104.021 C76.266,102.395 76.609,100.736 78.729,100.847 C80.197,100.925 80.619,102.219 80.816,103.722" fill="#303144"></path>
			<path d="M133.784,72.964 C132.009,72.533 131.127,71.373 131.297,69.578 C131.433,68.141 132.476,67.175 133.805,67.217 C135.75,67.278 136.383,68.696 136.186,70.511 C136.03,71.95 135.197,72.743 133.784,72.964" fill="#303144"></path>
			<path d="M161.232,20.791 C162.772,20.642 163.856,21.26 164.206,22.597 C164.661,24.341 163.956,25.835 162.222,26.358 C160.805,26.785 159.896,25.708 159.48,24.446 C158.894,22.665 159.507,21.381 161.232,20.791" fill="#303144"></path>
			<path d="M129.499,51.55 C131.043,51.966 132.354,52.871 131.839,54.677 C131.553,55.68 130.565,57 129.671,57.205 C127.883,57.614 126.971,56.109 126.781,54.528 C126.562,52.714 127.731,51.811 129.499,51.55" fill="#303144"></path>
			<path d="M95.992,79.663 C96.481,79.38 97.102,79.386 97.585,79.68 C98.719,80.372 99.494,81.39 99.093,82.819 C98.923,83.427 98.385,83.932 97.808,84.426 C97.201,84.946 96.305,84.945 95.698,84.425 C95.119,83.928 94.58,83.42 94.418,82.812 C94.039,81.387 94.806,80.349 95.992,79.663" fill="#303144"></path>
			<path d="M85.621,74.127 C85.147,74.494 84.147,75.878 83.314,75.784 C81.737,75.606 80.339,74.307 80.965,72.453 C81.317,71.414 82.602,69.845 83.285,69.933 C84.864,70.136 85.964,71.451 85.621,74.127" fill="#303144"></path>
			<path d="M144.998,56.721 C146.566,57.512 147.417,58.753 146.872,60.5 C146.495,61.708 145.548,62.768 144.161,62.353 C142.443,61.84 141.706,60.446 142.289,58.676 C142.688,57.464 143.507,56.572 144.998,56.721" fill="#303144"></path>
			<path d="M176.312,9.653 C174.828,9.764 173.859,8.958 173.543,7.664 C173.069,5.721 174.406,4.685 176.023,4.539 C177.391,4.416 178.305,5.618 178.338,6.98 C178.37,8.264 177.877,9.448 176.312,9.653" fill="#303144"></path>
			<path d="M69.521,83.491 C69.017,84.697 68.86,86.101 67.266,86.082 C65.189,86.058 64.87,84.47 64.856,82.909 C64.844,81.573 65.584,80.594 67.048,80.54 C69.201,80.46 69.325,82.054 69.521,83.491" fill="#303144"></path>
			<path d="M110.877,80.37 C111.056,78.833 111.155,77.191 113.279,77.176 C114.87,77.166 115.275,78.491 115.383,79.66 C115.528,81.241 115.211,82.815 113.077,82.781 C111.578,82.758 111.075,81.673 110.877,80.37" fill="#303144"></path>
			<path d="M68.582,111.932 C70.154,111.859 70.776,112.813 71.02,114.106 C71.327,115.731 71.084,117.228 69.174,117.569 C67.774,117.819 66.88,116.987 66.736,115.545 C66.576,113.95 66.879,112.557 68.582,111.932" fill="#303144"></path>
			<path d="M100.329,70.277 C98.154,69.481 97.409,68.085 97.95,66.568 C98.25,65.724 99.735,64.647 100.518,64.768 C102.158,65.021 103.036,66.584 102.495,68.179 C102.185,69.093 100.962,69.697 100.329,70.277" fill="#303144"></path>
		</g>
	</g>
</svg>
